packages/tokens/icons/receipt2/size32Px.svg

<svg viewBox="0 0 32 32" fill="none" xmlns="http://www.w3.org/2000/svg" width="1em" height="1em"><path d="M7.5 3C7.5 2.72386 7.72386 2.5 8 2.5L24 2.5C24.2761 2.5 24.5 2.72386 24.5 3L24.5 27.9194C24.5 28.3386 24.015 28.5717 23.6877 28.3098L21.0113 26.1687C20.4144 25.6912 19.554 25.7389 19.0136 26.2793L16.3536 28.9393C16.1583 29.1346 15.8417 29.1346 15.6464 28.9393L12.9864 26.2793C12.446 25.7389 11.5856 25.6912 10.9887 26.1687L8.31235 28.3098C7.98497 28.5717 7.5 28.3386 7.5 27.9194L7.5 3Z" stroke="currentColor" stroke-linecap="round" stroke-linejoin="round"/><path d="M21 12.2083V11.9167C21 10.3058 19.6942 9 18.0833 9L13.9167 9C12.3058 9 11 10.3058 11 11.9167C11 13.5275 12.3058 14.8333 13.9167 14.8333L18.0833 14.8333C19.6942 14.8333 21 16.1392 21 17.75C21 19.3608 19.6942 20.6667 18.0833 20.6667H13.9167C12.3058 20.6667 11 19.3608 11 17.75V17.1667M16 6L16 23" stroke="currentColor" stroke-linecap="round"/></svg>

<svg xmlns="http://www.w3.org/2000/svg" fill="none" viewBox="0 0 32 32" width="1em" height="1em"><path stroke="currentColor" stroke-linecap="round" stroke-linejoin="round" d="M7.5 3a.5.5 0 0 1 .5-.5h16a.5.5 0 0 1 .5.5v24.92a.5.5 0 0 1-.812.39l-2.677-2.141a1.5 1.5 0 0 0-1.997.11l-2.66 2.66a.5.5 0 0 1-.708 0l-2.66-2.66a1.5 1.5 0 0 0-1.997-.11l-2.677 2.14a.5.5 0 0 1-.812-.39V3Z"/><path stroke="currentColor" stroke-linecap="round" d="M21 12.208v-.291A2.917 2.917 0 0 0 18.083 9h-4.166a2.917 2.917 0 1 0 0 5.833h4.166a2.917 2.917 0 1 1 0 5.834h-4.166A2.917 2.917 0 0 1 11 17.75v-.583M16 6v17"/></svg>
